replication/atom_indices/EAS_16_atomIndicesCap.svg

<?xml version="1.0" encoding="UTF-8"?>
<svg baseProfile="full" version="1.1" viewBox="0 0 800 200" xml:space="preserve" xmlns="http://www.w3.org/2000/svg">

 <!-- END OF HEADER -->
<rect width="800" height="200" fill="#fff"> </rect>
<path class="bond-0" d="m92.783 133.15h-8.4564" fill="none" stroke="#00f" stroke-width="2px"/>
<path class="bond-0" d="m84.326 133.15h-8.4563" fill="none" stroke="#000" stroke-width="2px"/>
<path class="bond-1" d="m109.08 126.1 6.506-11.269" fill="none" stroke="#00f" stroke-width="2px"/>
<path class="bond-1" d="m115.58 114.83 6.505-11.268" fill="none" stroke="#000" stroke-width="2px"/>
<path class="bond-2" d="m58.628 126.1-13.012-22.537" fill="none" stroke="#000" stroke-width="2px"/>
<path class="bond-2" d="m64.004 118.49-9.1082-15.776" fill="none" stroke="#000" stroke-width="2px"/>
<path class="bond-3" d="m45.616 89.461 13.012-22.537" fill="none" stroke="#000" stroke-width="2px"/>
<path class="bond-4" d="m75.87 59.873h7.9823" fill="none" stroke="#000" stroke-width="2px"/>
<path class="bond-4" d="m83.852 59.873h7.9823" fill="none" stroke="#00f" stroke-width="2px"/>
<path class="bond-4" d="m78.265 68.334h5.5876" fill="none" stroke="#000" stroke-width="2px"/>
<path class="bond-4" d="m83.852 68.334h5.5876" fill="none" stroke="#00f" stroke-width="2px"/>
<path class="bond-5" d="m109.08 66.924 6.506 11.268" fill="none" stroke="#00f" stroke-width="2px"/>
<path class="bond-5" d="m115.58 78.192 6.505 11.268" fill="none" stroke="#000" stroke-width="2px"/>
<path class="bond-6" d="m139.33 100.74h7.745" fill="none" stroke="#000" stroke-width="2px"/>
<path class="bond-6" d="m147.08 100.74h7.745" fill="none" stroke="#f00" stroke-width="2px"/>
<path class="bond-6" d="m139.33 92.281h7.745" fill="none" stroke="#000" stroke-width="2px"/>
<path class="bond-6" d="m147.08 92.281h7.745" fill="none" stroke="#f00" stroke-width="2px"/>
<text x="92.7827" y="140.202" fill="#0000FF" font-family="sans-serif" font-size="14px"><tspan>NH</tspan></text>
<text x="49.5274" y="140.202" fill="#000000" font-family="sans-serif" font-size="14px"><tspan>C:1</tspan></text>
<text x="28.3738" y="103.563" fill="#000000" font-family="sans-serif" font-size="14px"><tspan>C:2</tspan></text>
<text x="49.5274" y="66.924" fill="#000000" font-family="sans-serif" font-size="14px"><tspan>C:3</tspan></text>
<text x="91.8346" y="66.924" fill="#0000FF" font-family="sans-serif" font-size="14px"><tspan>N:4</tspan></text>
<text x="112.988" y="103.563" fill="#000000" font-family="sans-serif" font-size="14px"><tspan>C:5</tspan></text>
<text x="154.821" y="103.563" fill="#FF0000" font-family="sans-serif" font-size="14px"><tspan>O:6</tspan></text>
<text x="74.3794" y="194" fill="#000000" font-family="sans-serif" font-size="12px"><tspan>comp99</tspan></text>
<path class="bond-0" d="m228.61 113.35 3.855-13.262" fill="none" stroke="#00f" stroke-width="2px"/>
<path class="bond-0" d="m232.46 100.09 3.856-13.261" fill="none" stroke="#000" stroke-width="2px"/>
<path class="bond-1" d="m233.32 127.45 7.879 8.219" fill="none" stroke="#00f" stroke-width="2px"/>
<path class="bond-1" d="m241.2 135.67 7.879 8.219" fill="none" stroke="#000" stroke-width="2px"/>
<path class="bond-2" d="m234.66 69.796-7.879-8.2191" fill="none" stroke="#000" stroke-width="2px"/>
<path class="bond-2" d="m226.78 61.577-7.879-8.219" fill="none" stroke="#f00" stroke-width="2px"/>
<path class="bond-2" d="m228.56 75.652-7.879-8.219" fill="none" stroke="#000" stroke-width="2px"/>
<path class="bond-2" d="m220.68 67.433-7.88-8.2191" fill="none" stroke="#f00" stroke-width="2px"/>
<path class="bond-3" d="m251.54 76.543 7.372-1.8096" fill="none" stroke="#000" stroke-width="2px"/>
<path class="bond-3" d="m258.91 74.733 7.373-1.8095" fill="none" stroke="#00f" stroke-width="2px"/>
<path class="bond-4" d="m286.22 76.742 7.879 8.2191" fill="none" stroke="#00f" stroke-width="2px"/>
<path class="bond-4" d="m294.1 84.961 7.879 8.219" fill="none" stroke="#000" stroke-width="2px"/>
<path class="bond-4" d="m282.47 85.063 5.516 5.7534" fill="none" stroke="#00f" stroke-width="2px"/>
<path class="bond-4" d="m287.99 90.816 5.515 5.7533" fill="none" stroke="#000" stroke-width="2px"/>
<path class="bond-5" d="m306.68 107.28-7.711 26.523" fill="none" stroke="#000" stroke-width="2px"/>
<path class="bond-6" d="m321.9 96.998 14.745-3.6192" fill="none" stroke="#000" stroke-width="2px"/>
<path class="bond-7" d="m283.75 144.09-14.745 3.62" fill="none" stroke="#000" stroke-width="2px"/>
<path class="bond-7" d="m279.52 136.42-10.322 2.533" fill="none" stroke="#000" stroke-width="2px"/>
<path class="bond-8" d="m362.99 86.913 7.842-1.9249" fill="none" stroke="#000" stroke-width="2px"/>
<path class="bond-8" d="m370.84 84.988 7.842-1.9249" fill="none" stroke="#3cc" stroke-width="2px"/>
<path class="bond-9" d="m351.55 97.198 3.312 13.492" fill="none" stroke="#000" stroke-width="2px"/>
<path class="bond-9" d="m354.86 110.69 3.312 13.493" fill="none" stroke="#3cc" stroke-width="2px"/>
<path class="bond-10" d="m348.09 83.095-3.312-13.493" fill="none" stroke="#000" stroke-width="2px"/>
<path class="bond-10" d="m344.78 69.602-3.312-13.493" fill="none" stroke="#3cc" stroke-width="2px"/>
<text x="214.335" y="127.452" fill="#0000FF" font-family="sans-serif" font-size="14px"><tspan>NH</tspan></text>
<text x="225.197" y="86.8267" fill="#000000" font-family="sans-serif" font-size="14px"><tspan>C:1</tspan></text>
<text x="195.446" y="56.2861" fill="#FF0000" font-family="sans-serif" font-size="14px"><tspan>O:2</tspan></text>
<text x="266.285" y="76.7418" fill="#0000FF" font-family="sans-serif" font-size="14px"><tspan>N:3</tspan></text>
<text x="295.562" y="107.282" fill="#000000" font-family="sans-serif" font-size="14px"><tspan>C:4</tspan></text>
<text x="283.752" y="147.908" fill="#000000" font-family="sans-serif" font-size="14px"><tspan>C:5</tspan></text>
<text x="242.665" y="157.993" fill="#000000" font-family="sans-serif" font-size="14px"><tspan>C:6</tspan></text>
<text x="336.65" y="97.1975" fill="#000000" font-family="sans-serif" font-size="14px"><tspan>C:7</tspan></text>
<text x="378.677" y="87.1126" fill="#33CCCC" font-family="sans-serif" font-size="14px"><tspan>F:8</tspan></text>
<text x="347.675" y="138.285" fill="#33CCCC" font-family="sans-serif" font-size="14px"><tspan>F:9</tspan></text>
<text x="322.798" y="56.1098" fill="#33CCCC" font-family="sans-serif" font-size="14px"><tspan>F:10</tspan></text>
<text x="270.375" y="194" fill="#000000" font-family="sans-serif" font-size="12px"><tspan>comp100</tspan></text>
</svg>

<?xml version='1.0' encoding='iso-8859-1'?>
<svg version='1.1' baseProfile='full'
              xmlns='http://www.w3.org/2000/svg'
                      xmlns:rdkit='http://www.rdkit.org/xml'
                      xmlns:xlink='http://www.w3.org/1999/xlink'
                  xml:space='preserve'
width='800px' height='200px' viewBox='0 0 800 200'>
<!-- END OF HEADER -->
<rect style='opacity:1.0;fill:#FFFFFF;stroke:none' width='800' height='200' x='0' y='0'> </rect>
<path class='bond-0' d='M 92.7827,133.151 L 84.3263,133.151' style='fill:none;fill-rule:evenodd;stroke:#0000FF;stroke-width:2px;stroke-linecap:butt;stroke-linejoin:miter;stroke-opacity:1' />
<path class='bond-0' d='M 84.3263,133.151 L 75.87,133.151' style='fill:none;fill-rule:evenodd;stroke:#000000;stroke-width:2px;stroke-linecap:butt;stroke-linejoin:miter;stroke-opacity:1' />
<path class='bond-1' d='M 109.077,126.1 L 115.583,114.831' style='fill:none;fill-rule:evenodd;stroke:#0000FF;stroke-width:2px;stroke-linecap:butt;stroke-linejoin:miter;stroke-opacity:1' />
<path class='bond-1' d='M 115.583,114.831 L 122.088,103.563' style='fill:none;fill-rule:evenodd;stroke:#000000;stroke-width:2px;stroke-linecap:butt;stroke-linejoin:miter;stroke-opacity:1' />
<path class='bond-2' d='M 58.6277,126.1 L 45.6161,103.563' style='fill:none;fill-rule:evenodd;stroke:#000000;stroke-width:2px;stroke-linecap:butt;stroke-linejoin:miter;stroke-opacity:1' />
<path class='bond-2' d='M 64.0038,118.489 L 54.8956,102.713' style='fill:none;fill-rule:evenodd;stroke:#000000;stroke-width:2px;stroke-linecap:butt;stroke-linejoin:miter;stroke-opacity:1' />
<path class='bond-3' d='M 45.6161,89.4607 L 58.6277,66.924' style='fill:none;fill-rule:evenodd;stroke:#000000;stroke-width:2px;stroke-linecap:butt;stroke-linejoin:miter;stroke-opacity:1' />
<path class='bond-4' d='M 75.87,59.8728 L 83.8523,59.8728' style='fill:none;fill-rule:evenodd;stroke:#000000;stroke-width:2px;stroke-linecap:butt;stroke-linejoin:miter;stroke-opacity:1' />
<path class='bond-4' d='M 83.8523,59.8728 L 91.8346,59.8728' style='fill:none;fill-rule:evenodd;stroke:#0000FF;stroke-width:2px;stroke-linecap:butt;stroke-linejoin:miter;stroke-opacity:1' />
<path class='bond-4' d='M 78.2647,68.3342 L 83.8523,68.3342' style='fill:none;fill-rule:evenodd;stroke:#000000;stroke-width:2px;stroke-linecap:butt;stroke-linejoin:miter;stroke-opacity:1' />
<path class='bond-4' d='M 83.8523,68.3342 L 89.4399,68.3342' style='fill:none;fill-rule:evenodd;stroke:#0000FF;stroke-width:2px;stroke-linecap:butt;stroke-linejoin:miter;stroke-opacity:1' />
<path class='bond-5' d='M 109.077,66.924 L 115.583,78.1924' style='fill:none;fill-rule:evenodd;stroke:#0000FF;stroke-width:2px;stroke-linecap:butt;stroke-linejoin:miter;stroke-opacity:1' />
<path class='bond-5' d='M 115.583,78.1924 L 122.088,89.4607' style='fill:none;fill-rule:evenodd;stroke:#000000;stroke-width:2px;stroke-linecap:butt;stroke-linejoin:miter;stroke-opacity:1' />
<path class='bond-6' d='M 139.331,100.743 L 147.076,100.743' style='fill:none;fill-rule:evenodd;stroke:#000000;stroke-width:2px;stroke-linecap:butt;stroke-linejoin:miter;stroke-opacity:1' />
<path class='bond-6' d='M 147.076,100.743 L 154.821,100.743' style='fill:none;fill-rule:evenodd;stroke:#FF0000;stroke-width:2px;stroke-linecap:butt;stroke-linejoin:miter;stroke-opacity:1' />
<path class='bond-6' d='M 139.331,92.2812 L 147.076,92.2812' style='fill:none;fill-rule:evenodd;stroke:#000000;stroke-width:2px;stroke-linecap:butt;stroke-linejoin:miter;stroke-opacity:1' />
<path class='bond-6' d='M 147.076,92.2812 L 154.821,92.2812' style='fill:none;fill-rule:evenodd;stroke:#FF0000;stroke-width:2px;stroke-linecap:butt;stroke-linejoin:miter;stroke-opacity:1' />
<text x='92.7827' y='140.202' style='font-size:14px;font-style:normal;font-weight:normal;fill-opacity:1;stroke:none;font-family:sans-serif;text-anchor:start;fill:#0000FF' ><tspan>NH</tspan></text>
<text x='49.5274' y='140.202' style='font-size:14px;font-style:normal;font-weight:normal;fill-opacity:1;stroke:none;font-family:sans-serif;text-anchor:start;fill:#000000' ><tspan>C:1</tspan></text>
<text x='28.3738' y='103.563' style='font-size:14px;font-style:normal;font-weight:normal;fill-opacity:1;stroke:none;font-family:sans-serif;text-anchor:start;fill:#000000' ><tspan>C:2</tspan></text>
<text x='49.5274' y='66.924' style='font-size:14px;font-style:normal;font-weight:normal;fill-opacity:1;stroke:none;font-family:sans-serif;text-anchor:start;fill:#000000' ><tspan>C:3</tspan></text>
<text x='91.8346' y='66.924' style='font-size:14px;font-style:normal;font-weight:normal;fill-opacity:1;stroke:none;font-family:sans-serif;text-anchor:start;fill:#0000FF' ><tspan>N:4</tspan></text>
<text x='112.988' y='103.563' style='font-size:14px;font-style:normal;font-weight:normal;fill-opacity:1;stroke:none;font-family:sans-serif;text-anchor:start;fill:#000000' ><tspan>C:5</tspan></text>
<text x='154.821' y='103.563' style='font-size:14px;font-style:normal;font-weight:normal;fill-opacity:1;stroke:none;font-family:sans-serif;text-anchor:start;fill:#FF0000' ><tspan>O:6</tspan></text>
<text x='74.3794' y='194' style='font-size:12px;font-style:normal;font-weight:normal;fill-opacity:1;stroke:none;font-family:sans-serif;text-anchor:start;fill:#000000' ><tspan>comp99</tspan></text>
<path class='bond-0' d='M 228.608,113.35 L 232.463,100.088' style='fill:none;fill-rule:evenodd;stroke:#0000FF;stroke-width:2px;stroke-linecap:butt;stroke-linejoin:miter;stroke-opacity:1' />
<path class='bond-0' d='M 232.463,100.088 L 236.319,86.8267' style='fill:none;fill-rule:evenodd;stroke:#000000;stroke-width:2px;stroke-linecap:butt;stroke-linejoin:miter;stroke-opacity:1' />
<path class='bond-1' d='M 233.318,127.452 L 241.197,135.671' style='fill:none;fill-rule:evenodd;stroke:#0000FF;stroke-width:2px;stroke-linecap:butt;stroke-linejoin:miter;stroke-opacity:1' />
<path class='bond-1' d='M 241.197,135.671 L 249.076,143.89' style='fill:none;fill-rule:evenodd;stroke:#000000;stroke-width:2px;stroke-linecap:butt;stroke-linejoin:miter;stroke-opacity:1' />
<path class='bond-2' d='M 234.663,69.7965 L 226.784,61.5774' style='fill:none;fill-rule:evenodd;stroke:#000000;stroke-width:2px;stroke-linecap:butt;stroke-linejoin:miter;stroke-opacity:1' />
<path class='bond-2' d='M 226.784,61.5774 L 218.905,53.3584' style='fill:none;fill-rule:evenodd;stroke:#FF0000;stroke-width:2px;stroke-linecap:butt;stroke-linejoin:miter;stroke-opacity:1' />
<path class='bond-2' d='M 228.555,75.652 L 220.676,67.433' style='fill:none;fill-rule:evenodd;stroke:#000000;stroke-width:2px;stroke-linecap:butt;stroke-linejoin:miter;stroke-opacity:1' />
<path class='bond-2' d='M 220.676,67.433 L 212.796,59.2139' style='fill:none;fill-rule:evenodd;stroke:#FF0000;stroke-width:2px;stroke-linecap:butt;stroke-linejoin:miter;stroke-opacity:1' />
<path class='bond-3' d='M 251.54,76.5426 L 258.912,74.733' style='fill:none;fill-rule:evenodd;stroke:#000000;stroke-width:2px;stroke-linecap:butt;stroke-linejoin:miter;stroke-opacity:1' />
<path class='bond-3' d='M 258.912,74.733 L 266.285,72.9235' style='fill:none;fill-rule:evenodd;stroke:#0000FF;stroke-width:2px;stroke-linecap:butt;stroke-linejoin:miter;stroke-opacity:1' />
<path class='bond-4' d='M 286.216,76.7418 L 294.095,84.9609' style='fill:none;fill-rule:evenodd;stroke:#0000FF;stroke-width:2px;stroke-linecap:butt;stroke-linejoin:miter;stroke-opacity:1' />
<path class='bond-4' d='M 294.095,84.9609 L 301.974,93.1799' style='fill:none;fill-rule:evenodd;stroke:#000000;stroke-width:2px;stroke-linecap:butt;stroke-linejoin:miter;stroke-opacity:1' />
<path class='bond-4' d='M 282.471,85.063 L 287.987,90.8164' style='fill:none;fill-rule:evenodd;stroke:#0000FF;stroke-width:2px;stroke-linecap:butt;stroke-linejoin:miter;stroke-opacity:1' />
<path class='bond-4' d='M 287.987,90.8164 L 293.502,96.5697' style='fill:none;fill-rule:evenodd;stroke:#000000;stroke-width:2px;stroke-linecap:butt;stroke-linejoin:miter;stroke-opacity:1' />
<path class='bond-5' d='M 306.684,107.282 L 298.973,133.805' style='fill:none;fill-rule:evenodd;stroke:#000000;stroke-width:2px;stroke-linecap:butt;stroke-linejoin:miter;stroke-opacity:1' />
<path class='bond-6' d='M 321.905,96.9983 L 336.65,93.3791' style='fill:none;fill-rule:evenodd;stroke:#000000;stroke-width:2px;stroke-linecap:butt;stroke-linejoin:miter;stroke-opacity:1' />
<path class='bond-7' d='M 283.752,144.089 L 269.007,147.709' style='fill:none;fill-rule:evenodd;stroke:#000000;stroke-width:2px;stroke-linecap:butt;stroke-linejoin:miter;stroke-opacity:1' />
<path class='bond-7' d='M 279.524,136.415 L 269.202,138.948' style='fill:none;fill-rule:evenodd;stroke:#000000;stroke-width:2px;stroke-linecap:butt;stroke-linejoin:miter;stroke-opacity:1' />
<path class='bond-8' d='M 362.993,86.9134 L 370.835,84.9885' style='fill:none;fill-rule:evenodd;stroke:#000000;stroke-width:2px;stroke-linecap:butt;stroke-linejoin:miter;stroke-opacity:1' />
<path class='bond-8' d='M 370.835,84.9885 L 378.677,83.0636' style='fill:none;fill-rule:evenodd;stroke:#33CCCC;stroke-width:2px;stroke-linecap:butt;stroke-linejoin:miter;stroke-opacity:1' />
<path class='bond-9' d='M 351.552,97.1975 L 354.864,110.69' style='fill:none;fill-rule:evenodd;stroke:#000000;stroke-width:2px;stroke-linecap:butt;stroke-linejoin:miter;stroke-opacity:1' />
<path class='bond-9' d='M 354.864,110.69 L 358.176,124.183' style='fill:none;fill-rule:evenodd;stroke:#33CCCC;stroke-width:2px;stroke-linecap:butt;stroke-linejoin:miter;stroke-opacity:1' />
<path class='bond-10' d='M 348.091,83.0951 L 344.779,69.6024' style='fill:none;fill-rule:evenodd;stroke:#000000;stroke-width:2px;stroke-linecap:butt;stroke-linejoin:miter;stroke-opacity:1' />
<path class='bond-10' d='M 344.779,69.6024 L 341.467,56.1098' style='fill:none;fill-rule:evenodd;stroke:#33CCCC;stroke-width:2px;stroke-linecap:butt;stroke-linejoin:miter;stroke-opacity:1' />
<text x='214.335' y='127.452' style='font-size:14px;font-style:normal;font-weight:normal;fill-opacity:1;stroke:none;font-family:sans-serif;text-anchor:start;fill:#0000FF' ><tspan>NH</tspan></text>
<text x='225.197' y='86.8267' style='font-size:14px;font-style:normal;font-weight:normal;fill-opacity:1;stroke:none;font-family:sans-serif;text-anchor:start;fill:#000000' ><tspan>C:1</tspan></text>
<text x='195.446' y='56.2861' style='font-size:14px;font-style:normal;font-weight:normal;fill-opacity:1;stroke:none;font-family:sans-serif;text-anchor:start;fill:#FF0000' ><tspan>O:2</tspan></text>
<text x='266.285' y='76.7418' style='font-size:14px;font-style:normal;font-weight:normal;fill-opacity:1;stroke:none;font-family:sans-serif;text-anchor:start;fill:#0000FF' ><tspan>N:3</tspan></text>
<text x='295.562' y='107.282' style='font-size:14px;font-style:normal;font-weight:normal;fill-opacity:1;stroke:none;font-family:sans-serif;text-anchor:start;fill:#000000' ><tspan>C:4</tspan></text>
<text x='283.752' y='147.908' style='font-size:14px;font-style:normal;font-weight:normal;fill-opacity:1;stroke:none;font-family:sans-serif;text-anchor:start;fill:#000000' ><tspan>C:5</tspan></text>
<text x='242.665' y='157.993' style='font-size:14px;font-style:normal;font-weight:normal;fill-opacity:1;stroke:none;font-family:sans-serif;text-anchor:start;fill:#000000' ><tspan>C:6</tspan></text>
<text x='336.65' y='97.1975' style='font-size:14px;font-style:normal;font-weight:normal;fill-opacity:1;stroke:none;font-family:sans-serif;text-anchor:start;fill:#000000' ><tspan>C:7</tspan></text>
<text x='378.677' y='87.1126' style='font-size:14px;font-style:normal;font-weight:normal;fill-opacity:1;stroke:none;font-family:sans-serif;text-anchor:start;fill:#33CCCC' ><tspan>F:8</tspan></text>
<text x='347.675' y='138.285' style='font-size:14px;font-style:normal;font-weight:normal;fill-opacity:1;stroke:none;font-family:sans-serif;text-anchor:start;fill:#33CCCC' ><tspan>F:9</tspan></text>
<text x='322.798' y='56.1098' style='font-size:14px;font-style:normal;font-weight:normal;fill-opacity:1;stroke:none;font-family:sans-serif;text-anchor:start;fill:#33CCCC' ><tspan>F:10</tspan></text>
<text x='270.375' y='194' style='font-size:12px;font-style:normal;font-weight:normal;fill-opacity:1;stroke:none;font-family:sans-serif;text-anchor:start;fill:#000000' ><tspan>comp100</tspan></text>
</svg>
